X:1
T:T
T:O ma georgette
T:Lied / HS.81.Vanpelt.330
T:Een speelmansboek uit Maastricht/Tongeren (1786-1824) 
T:BRON: Lusthof-der-muziek.blogspot.com: Handschrift van VanPelt (1786-1824)  / Transcriptie door Ad Kwakernaat (2015) 
T:Naar een origineel van Dalayrac Nicolas (1753-1809) 
T:Genoteerd door Van der Elst Johan
Z:Een speelmansboek uit Maastricht/Tongeren (1786-1824)
Z:Genoteerd door Van der Elst Johan
L:1/8
Q:1/4=94
M:2/4
K:G
V:1 treble nm="Viool" snm="Vl."
V:1
"^Andantino" B2 (A/e/c/)!wedge!A/ | G2 FG | AB cd | cB A2 | B2 ^c2 | (d/c/)(B/A/) GA/B/ | F2 EA | %7
 D2 z2 | %8
"_BRON: \nAlamire uitgave \"Speelmansboek uit Maastricht\"\n vermeldt bij concordatie:\n              + Dalayrac Nicolas (1753-1809), \nPhilippe et Georgette \n(1791)\n              + La Clé du Caveau (Paris, 4de ed., 1848): 416\n              + Répertoire International des Sources Musicales, dl. A/II, manuscrits musicaux après 1600: 400065392\n\n\nhttps://fr.wikisource.org/wiki/%C3%94_ma_Georgette \n(Partituur, meerstemmig)\n" c>A AA | %9
 d2 z2 | cA AF | d>e (d/c/)(B/A/) | A4 | G2 |] %14

